assets/img/testimonials/Malt.svg

<?xml version="1.0" encoding="UTF-8"?>
<svg width="70px" height="22px" viewBox="0 0 70 22" version="1.1" xmlns="http://www.w3.org/2000/svg" xmlns:xlink="http://www.w3.org/1999/xlink">
    <!-- Generator: Sketch 52.4 (67378) - http://www.bohemiancoding.com/sketch -->
    <title>Malt</title>
    <desc>Created with Sketch.</desc>
    <g id="Page-1" stroke="none" stroke-width="1" fill="none" fill-rule="evenodd">
        <g id="Malt" fill="#B8BCCC">
            <path d="M7.93203279,18.9885246 C7.93203279,20.8745137 9.10344262,21.9415738 10.5599016,21.9473443 C10.5635738,21.9473443 10.5562295,21.9473443 10.5599016,21.9473443 C12.0113115,21.9478251 13.2084262,20.5104918 13.2143934,18.9885246 L10.5580656,16.171082 L7.93203279,18.9885246 Z" id="Path"></path>
            <path d="M6.99862295,3.06629508 C6.51530332,2.53461923 5.84903238,2.22761088 5.14832787,2.21370492 C4.43822951,2.19975956 3.77357377,2.4704918 3.26406557,2.98118033 C2.212,4.03669945 2.1757377,5.79140984 3.18281967,6.89357377 L3.57711475,7.32491803 L9.1615082,7.3499235 L10.0602623,6.41654645 L6.99862295,3.06629508 Z M17.9826557,15.0847869 L17.5883607,14.6534426 L12.0039672,14.6284372 L11.1052131,15.5618142 L14.1668525,18.9120656 C15.1739344,20.0132678 16.8498033,20.0517377 17.9014098,18.9971803 C18.9530164,17.9416612 18.9897377,16.1869508 17.9826557,15.0847869 Z" id="Shape" fill-rule="nonzero"></path>
            <path d="M18.1876066,8.25540984 L12.8340984,13.7662295 L18.5125902,13.7917158 L18.5240656,13.7917158 C19.2254426,13.7917158 19.8855082,13.5075191 20.384,12.9900984 C20.8828322,12.4740322 21.1641061,11.7705171 21.1652459,11.0360656 C21.1712131,9.51073224 20.0236721,8.21621858 18.1876066,8.2551694 L18.1876066,8.25540984 Z M2.65265574,8.18688525 L2.6402623,8.18688525 C1.94370063,8.18486786 1.27499784,8.47328717 0.781704918,8.98850273 C0.282679349,9.50417588 0.00121489188,10.2074947 -1.4557447e-16,10.9418142 C-0.00321311475,11.680918 0.132655738,13.720306 3.02032787,13.720306 L8.33114754,8.21237158 L2.65265574,8.18688525 Z" id="Shape" fill-rule="nonzero"></path>
            <path d="M18.0976393,3.18314754 C17.0721967,2.0997377 15.3967869,2.09156284 14.362623,3.16679781 L3.08367213,14.881377 C2.0495082,15.9561311 2.04216393,17.7113224 3.06760656,18.7947322 C4.09304918,19.878623 5.76891803,19.8867978 6.80308197,18.8115628 L18.0815738,7.09698361 C19.1161967,6.02222951 19.123082,4.26655738 18.0976393,3.18314754" id="Path"></path>
            <path d="M69.9047541,6.25473224 C69.9042951,5.18959563 69.0748525,4.32594536 68.052623,4.32594536 L66.6572131,4.32594536 L66.6572131,0.783825137 L63.2696721,0.783825137 L63.2343279,2.76887432 C63.2164262,3.78063388 62.4241639,4.59138798 61.4519672,4.59138798 L60.41,4.59138798 L60.41,8.04935519 L61.4547213,8.04935519 C62.8868525,8.04935519 62.8666557,9.93871038 62.8666557,9.93871038 L62.8666557,13.1413333 C62.8666557,16.4911038 64.6623279,17.6947322 66.8711148,17.6947322 C68.5970164,17.6947322 69.0385902,17.3066667 69.0385902,17.3066667 L69.0385902,14.1276066 C69.0385902,14.1276066 68.5042951,14.2204153 67.8538689,14.2459016 C66.9486885,14.2814863 66.6572131,13.5645027 66.6572131,12.8181858 L66.6572131,8.18448087 L68.052623,8.18303825 C69.0748525,8.18303825 69.9042951,7.31938798 69.9047541,6.25473224 Z M59.3618361,12.7785137 L59.3618361,8.1943388 L59.3430164,5.19753005 C59.3540328,5.11481967 59.3618361,5.03114754 59.3618361,4.94507104 L59.3618361,2.09925683 C59.3618361,1.07499454 58.5438689,0.245005464 57.5349508,0.245005464 C56.5549508,0.245005464 55.7576393,1.02786885 55.7121967,2.01077596 L55.7076066,2.01077596 L55.7076066,13.0896393 C55.7076066,16.3100546 57.4385574,17.4675191 59.5679344,17.4675191 C59.9452459,17.4675191 60.2592131,17.4482842 60.5190164,17.4184699 L60.5153443,14.1514098 C59.6427541,14.1860328 59.3618361,13.496459 59.3618361,12.7785137 Z M54.6045902,17.4078907 L51.339377,17.4078907 L51.339377,16.0652896 C49.8723607,18.076306 46.7496721,17.2790164 46.2204262,17.0842623 C44.2443607,16.3566995 43.8165574,14.7948197 43.7591803,14.6188197 C43.5572131,13.9980109 43.582459,13.4560656 43.6315738,12.9679781 C43.7174098,12.1086557 44.2356393,10.8415519 45.8890164,10.2274754 C46.8345902,9.87691803 48.9841639,9.63551913 50.1147213,9.39748634 C50.972623,9.21715847 50.9432459,8.67184699 50.9432459,8.67184699 C50.9432459,8.67184699 51.0749836,7.79328962 50.0968197,7.40907104 C48.7491475,6.95801093 47.361541,7.9284153 47.3477705,7.93851366 C47.0846831,8.12696275 46.7732287,8.227397 46.4545246,8.22655738 C45.9716393,8.22655738 45.4965574,7.9995847 45.1954426,7.57256831 C44.701082,6.87145355 44.8635738,5.89864481 45.5580656,5.39949727 C45.6402295,5.3408306 47.082459,4.38196721 49.070459,4.23818579 C49.1434426,4.2304918 49.2191803,4.22520219 49.2995082,4.22327869 C49.3187869,4.22279781 49.3362295,4.22375956 49.3550492,4.22327869 C49.9022087,4.205767 50.4494064,4.25678037 50.9850164,4.37523497 L51.0088852,4.38052459 C51.0997705,4.40120219 51.1883607,4.4233224 51.2746557,4.44736612 L51.2847541,4.44977049 L51.2898033,4.45169399 C54.0374754,5.21965027 54.6043607,7.7168306 54.6043607,8.69733333 L54.6043607,17.4078907 L54.6045902,17.4078907 Z M49.8383934,14.4024262 C51.338,13.7715191 50.8945902,11.598929 50.8945902,11.598929 C50.8945902,11.598929 50.1087541,11.9533333 48.7647541,12.0009399 C47.4207541,12.0480656 47.1540656,13.0636721 47.2743279,13.7128525 C47.3950492,14.3629945 48.3383279,15.0338142 49.8383934,14.4024262 Z M42.5072131,8.78821858 C42.5072131,5.7096612 39.8343607,4.20404372 37.6728525,4.19779235 C35.6954098,4.19779235 34.5285902,4.88928962 33.7188852,5.77265574 C32.8398689,4.72194536 31.3104262,4.20115847 30.042623,4.19779235 C28.5714754,4.19779235 27.4225574,4.58008743 26.601377,5.13982514 C26.5125006,5.20047045 26.3951932,5.18741804 26.320459,5.10856831 L26.2327869,5.01672131 C25.6198651,4.3753053 24.6268235,4.3753053 24.0139016,5.01672131 C23.7191059,5.32456969 23.553412,5.74269349 23.553412,6.1787541 C23.553412,6.61481471 23.7191059,7.03293851 24.0139016,7.34078689 C24.1447213,7.47735519 24.2691148,7.5557377 24.3577049,7.59901639 C24.4372505,7.63789174 24.4880888,7.72153118 24.4880656,7.81348634 L24.4880656,9.30371585 L24.4885246,15.5454645 C24.4885246,16.5721311 25.282623,17.4040437 26.2621639,17.4040437 L26.2662951,17.4040437 C27.2461026,17.4040437 28.0403934,16.5719294 28.0403934,15.5454645 L28.0403934,9.2736612 C28.0403934,8.19073224 28.6499672,7.11549727 29.904459,7.11549727 C31.1580328,7.11549727 31.7345574,8.19794536 31.7345574,9.5208306 L31.7345574,17.2253989 L35.2827541,17.2253989 L35.2827541,9.52059016 C35.2827541,8.19770492 35.950623,7.11525683 37.2041967,7.11525683 C38.4577705,7.11525683 38.9594754,8.19770492 38.9594754,9.52059016 L38.9594754,17.2251585 L42.5072131,17.2251585 L42.5072131,8.78821858 Z" id="Shape" fill-rule="nonzero"></path>
            <path d="M13.4441311,2.95857923 C13.4441311,1.07259016 12.2727213,0.00601092896 10.8162623,0.000240437158 C10.8125902,0.000240437158 10.8199344,0.000240437158 10.8162623,0.000240437158 C9.36485246,0 8.1677377,1.43661202 8.16177049,2.95857923 L10.8180984,5.77602186 L13.4441311,2.95857923 Z" id="Path"></path>
        </g>
    </g>
</svg>

<?xml version="1.0" encoding="utf-8"?>
<!-- Generator: Adobe Illustrator 22.0.0, SVG Export Plug-In . SVG Version: 6.00 Build 0)  -->
<svg version="1.1" id="Malt" xmlns="http://www.w3.org/2000/svg" xmlns:xlink="http://www.w3.org/1999/xlink" x="0px" y="0px"
	 viewBox="0 0 70 22" style="enable-background:new 0 0 70 22;" xml:space="preserve">
<style type="text/css">
	.st0{fill:#B8BCCC;}
</style>
<path id="Path" class="st0" d="M7.9,19c0,1.9,1.2,3,2.6,3c0,0,0,0,0,0c1.5,0,2.6-1.4,2.7-3l-2.7-2.8L7.9,19z"/>
<path id="Shape" class="st0" d="M7,3.1C6.5,2.5,5.8,2.2,5.1,2.2C4.4,2.2,3.8,2.5,3.3,3C2.2,4,2.2,5.8,3.2,6.9l0.4,0.4l5.6,0l0.9-0.9
	L7,3.1z M18,15.1l-0.4-0.4l-5.6,0l-0.9,0.9l3.1,3.4c1,1.1,2.7,1.1,3.7,0.1C19,17.9,19,16.2,18,15.1z"/>
<path id="Shape_1_" class="st0" d="M18.2,8.3l-5.4,5.5l5.7,0h0c0.7,0,1.4-0.3,1.9-0.8c0.5-0.5,0.8-1.2,0.8-2
	C21.2,9.5,20,8.2,18.2,8.3L18.2,8.3z M2.7,8.2L2.7,8.2C1.9,8.2,1.3,8.5,0.8,9C0.3,9.5,0,10.2,0,10.9c0,0.7,0.1,2.8,3,2.8l5.3-5.5
	L2.7,8.2z"/>
<path id="Path_1_" class="st0" d="M18.1,3.2c-1-1.1-2.7-1.1-3.7,0L3.1,14.9c-1,1.1-1,2.8,0,3.9c1,1.1,2.7,1.1,3.7,0L18.1,7.1
	C19.1,6,19.1,4.3,18.1,3.2"/>
<path id="Shape_2_" class="st0" d="M69.9,6.3c0-1.1-0.8-1.9-1.9-1.9h-1.4V0.8h-3.4l0,2c0,1-0.8,1.8-1.8,1.8h-1V8h1
	c1.4,0,1.4,1.9,1.4,1.9v3.2c0,3.3,1.8,4.6,4,4.6c1.7,0,2.2-0.4,2.2-0.4v-3.2c0,0-0.5,0.1-1.2,0.1c-0.9,0-1.2-0.7-1.2-1.4V8.2l1.4,0
	C69.1,8.2,69.9,7.3,69.9,6.3z M59.4,12.8V8.2l0-3c0-0.1,0-0.2,0-0.3V2.1c0-1-0.8-1.9-1.8-1.9c-1,0-1.8,0.8-1.8,1.8h0v11.1
	c0,3.2,1.7,4.4,3.9,4.4c0.4,0,0.7,0,1,0l0-3.3C59.6,14.2,59.4,13.5,59.4,12.8z M54.6,17.4h-3.3v-1.3c-1.5,2-4.6,1.2-5.1,1
	c-2-0.7-2.4-2.3-2.5-2.5c-0.2-0.6-0.2-1.2-0.1-1.7c0.1-0.9,0.6-2.1,2.3-2.7c0.9-0.4,3.1-0.6,4.2-0.8c0.9-0.2,0.8-0.7,0.8-0.7
	s0.1-0.9-0.8-1.3c-1.3-0.5-2.7,0.5-2.7,0.5c-0.3,0.2-0.6,0.3-0.9,0.3c-0.5,0-1-0.2-1.3-0.7c-0.5-0.7-0.3-1.7,0.4-2.2
	c0.1-0.1,1.5-1,3.5-1.2c0.1,0,0.1,0,0.2,0c0,0,0,0,0.1,0c0.5,0,1.1,0,1.6,0.2l0,0c0.1,0,0.2,0,0.3,0.1l0,0l0,0
	c2.7,0.8,3.3,3.3,3.3,4.2L54.6,17.4L54.6,17.4z M49.8,14.4c1.5-0.6,1.1-2.8,1.1-2.8S50.1,12,48.8,12c-1.3,0-1.6,1.1-1.5,1.7
	C47.4,14.4,48.3,15,49.8,14.4z M42.5,8.8c0-3.1-2.7-4.6-4.8-4.6c-2,0-3.1,0.7-4,1.6c-0.9-1.1-2.4-1.6-3.7-1.6
	c-1.5,0-2.6,0.4-3.4,0.9c-0.1,0.1-0.2,0-0.3,0L26.2,5c-0.6-0.6-1.6-0.6-2.2,0c-0.3,0.3-0.5,0.7-0.5,1.2c0,0.4,0.2,0.9,0.5,1.2
	c0.1,0.1,0.3,0.2,0.3,0.3c0.1,0,0.1,0.1,0.1,0.2v1.5l0,6.2c0,1,0.8,1.9,1.8,1.9h0c1,0,1.8-0.8,1.8-1.9V9.3c0-1.1,0.6-2.2,1.9-2.2
	c1.3,0,1.8,1.1,1.8,2.4v7.7h3.5V9.5c0-1.3,0.7-2.4,1.9-2.4S39,8.2,39,9.5v7.7h3.5V8.8z"/>
<path id="Path_2_" class="st0" d="M13.4,3c0-1.9-1.2-3-2.6-3c0,0,0,0,0,0C9.4,0,8.2,1.4,8.2,3l2.7,2.8L13.4,3z"/>
</svg>
